!!!COM:	Bach, Johann Sebastian
!!!CDT:	1685/02/21/-1750/07/28/
!!!OTL@@DE:	Ach wie fl&uuml;chtig, ach wie nichtig
!!!OTL@EN:	Oh how fleeting, oh how fading
!!!OPR: Cantata, BWV 26: Ach wie fl&uuml;htig, ach wie nichtig
!!!SCT:	BWV 26/6
!!!PC#:	48
!!!hymn: M. Franck (1609-1667)
!!!AGN:	chorale
**kern	**kern	**kern	**kern
*ICvox	*ICvox	*ICvox	*ICvox
*Ibass	*Itenor	*Ialto	*Isoprn
*I"Bass	*I"Tenor	*I"Alto	*I"Soprano
*	*oclefC4	*oclefC3	*oclefC1
*clefF4	*clefGv2	*clefG2	*clefG2
*k[]	*k[]	*k[]	*k[]
*a:	*a:	*a:	*a:
*M4/4	*M4/4	*M4/4	*M4/4
*met(c)	*met(c)	*met(c)	*met(c)
*MM100	*MM100	*MM100	*MM100
=1-	=1-	=1-	=1-
4A	4c	4e	4a
4G#	4B	4e	4b
4A	4A	4e	4cc
4AA;	4A;	4e;	4cc;
=2	=2	=2	=2
4A	4A	4e	4cc
4GnX	4B	4g	4dd
4c	4c	4g	4ee
4C;	4c;	4g;	4ee;
=3	=3	=3	=3
8cL	8cL	4g	4ee
8B	8d	.	.
8A	8c	[4cc	4ee
8GJ	8BJ	.	.
8F#L	8AL	8cc]	4dd
8G#J	8B	4b	.
4A	8c	.	4cc
.	8eJ	8a	.
=4	=4	=4	=4
4D	4fnX	4a	4.b
4E	8eL	4g#	.
.	8dJ	.	8a
2AA;	2c#;	2e;	2a;
=5	=5	=5	=5
8AAL	8c#L	4a	4ee
8BB	8d	.	.
8C#X	8e	4a	4ee
8AAJ	8c#J	.	.
8DL	4d	4a	4ff
8CJ	.	.	.
8BB-L	4d	4b-	4ff
8AAJ	.	.	.
=6	=6	=6	=6
8GGL	4d	4b-	4ee
8EEJ	.	.	.
4AA	4c#	8aL	4ee
.	.	8gJ	.
4D	4d	8gL	4dd
.	.	8eJ	.
4DD;	4A;	4f#;	4dd;
=7	=7	=7	=7
8GGL	8BL	4g	4dd
8AA	8cnX	.	.
8BB	8d	4g	4dd
8GGJ	8BJ	.	.
8CL	4c	4g	4ee
8BB	.	.	.
8AA	4c	4a	4ee
8GGJ	.	.	.
=8	=8	=8	=8
8FFL	4c	4a	4dd
8DDJ	.	.	.
4GG	4B	8gL	4dd
.	.	8fJ	.
4C	4c	8fL	4cc
.	.	8dJ	.
4CC;	4G;	4e;	4cc;
=9	=9	=9	=9
4F	4A	4f	4cc
8EL	4A	4f	4dd
8DJ	.	.	.
8GG#L	4B	4e	4ee
8G#XJ	.	.	.
4A	4A	4e	8ddL
.	.	.	8ccJ
=10	=10	=10	=10
4D#	4A	4f#	4b
4E	4G#	8eL	4b
.	.	8dnXJ	.
4A	4A	8dL	4a
.	.	8BJ	.
4AA;	4E;	4c#;	4a;
==	==	==	==
*-	*-	*-	*-
!!!YOR1: 371 vierstimmige Choralges&auml;nge von Johann Sebastian Bach, 
!!!YOR2: 4th ed. by Alfred D&ouml;rffel (Leipzig: Breitkopf und H&auml;rtel, 
!!!YOR2: c.1875). 178 pp. Plate "V.A.10".  reprint: J.S. Bach, 371 Four-Part 
!!!YOR4: Chorales (New York: Associated Music Publishers, Inc., c.1940).
!!!SMS: B&H, 4th ed, Alfred D&ouml;rffel, c.1875, plate V.A.10
!!!PC#2: 11 (Budapest/Imre, 1982)
!!!EED:  Craig Stuart Sapp
!!!EEV:  2009/05/22
